X: 815
T: Alasdair Fraser's Compliments To Lorna Mitchell
R: reel
M: 4/4
K: Dmajor
|:AF (3FFF G2 FE|DFAd fgfe|d ~B3 gBdB|AFDF EcdB|
AF (3FFFG2 FE|DFAd fgfe|d ~B3 AFDF|1 EA,CE D2 dB:|2 EA,CE D2 fg||
a3f g3e|fdBe cABc|dD (3DDD FDFA|BGBd cefg|
a3f g3e|fdBe cABc|dD (3DDD FDFA|Bgec d2 fg|
a3f g3e|fdBe cABc|dD (3DDD FDFA|Bdgf edcB|
AF (3FFFG2 FE|DFAd fgfe|d ~B3 AFDF|EA,CE D2 dB|

